X: 103
T: Martin Wynne's #2
M:C|
C:Martin Wynne (1914-98)
R:reel
K:Bmin
"Bm(D)"FBAF "A"E2 FE|"G"DB, ~B,2 "D"DB,A,2|"Em"B,E ED "Bm"FEDE|"D"FABc dcBA|
"Bm(D)"FBAF "A"EGFE|"G"DB, ~B,2 "D"DB,A,2|"Em"B,E ED "Bm"FEDE|"D"FABA "Bm"B2 BA:|
|:"Bm(D)"FBAF "D"A2 FA|"G"(3Bcd eg "D"fede|f2 gf "A7"egfe|"D"dBAF "Bm"B2BA|
"Bm(D)"FBAF "D"A2 FA|"G"(3Bcd eg "D"fedf|"Bm"bf "(D)"af "A7"egfe|"D"dBAF "Bm"B2 BA:|


